**kern	**text
*clefG2	*
*k[b-e-]	*
*M4/4	*
*MM164	*
=1	=1
1r	.
=2	=2
*^	*
2r	2r	.
4r	4r	.
8r	4c	.
16r	.	.
32r	.	.
32f	.	ぶ
*v	*v	*
=3	=3
4.f	ら
16r	.
16f'	く
4.b-	ろ
32r	.
64r	.
64a-X	く
16r	.
=4	=4
2a	しゅ
4f	た
8cL	息
8fJ	ど
=5	=5
4dd	こ
8ee-L	え
[8ddJ	い
8ddL]	.
8cc	い
8b-	た
[8b-J	の
=6	=6
2.b-]	.
8cL	息
8fJ	き
=7	=7
2f	こ
[4b-	え
16b-]	.
32r	.
[32cKLL	息
16cJJ]	.
16r	.
=8	=8
2cc	ま
2b-	す
=9	=9
[1cc	か
=10	=10
2.cc]	.
4r	.
=11	=11
1r	.
=12	=12
1r	.
=13	=13
1r	.
=14	=14
1r	.
=15	=15
1r	.
=16	=16
1r	.
=17	=17
1r	.
=18	=18
1r	.
=19	=19
4c	息
4f	あ
4f	と
4e-	ど
=20	=20
4f	れ
4e-	だ
4d-X	け
4c	さ
=21	=21
4.c	け
8d-X	べ
4d-	ば
8r	.
8B-	い
=22	=22
4e-	い
8e-L	ん
8fJ	だ
2f	ろ
=23	=23
4c	息
4f	あ
4f	と
4e-	ど
=24	=24
4f	れ
4e-	だ
4f	け
4f	な
=25	=25
4.f	け
8a-X	え
4a-	ば
8r	.
8b-	い
=26	=26
4b-	い
8a-XL	ん
8a-J	だ
2a-	ろ
=27	=27
4c	息
2a-X	も
4b-	や
=28	=28
4b-	め
4a-X	て
4a-	わ
4b-	た
=29	=29
4.e-	し
8f	わ
2f	も
=30	=30
4.f	は
[8e-	し
4e-]	.
8d-XL	れ
8cJ	な
=31	=31
4d-X	い
8cL	息
[8fJ	い
8f]	.
4.d-	つ
=32	=32
4d-X	か
8fL	ゆ
[8fJ	め
8f]	.
4.a-X	み
=33	=33
4g	た
8f#XL	せ
[8fnJ	か
16fLL]	.
16fJJ	い
4.en	が
=34	=34
4.en	と
8f	じ
3f	る
6c	息
=35	=35
2B-	ま
2f	あ
=36	=36
4f	く
4e-	ら
4d-X	で
4c	あ
=37	=37
4c	か
4d-X	り
4e-	も
4f	な
=38	=38
2.c	い
8c'L	息
8B-J	く
=39	=39
8B-L	ず
8f	れ
8f	か
8fJ	け
2f	た
=40	=40
4e-	こ
4d-X	の
4a-X	み
4f#X	ち
=41	=41
[1f	で
=42	=42
8f]	.
8r	.
4r	.
4r	.
8r	.
8B-	あ
=43	=43
4B-	る
8fL	は
8fJ	ず
4f	も
4f	な
=44	=44
4e-'	い
4f	あ
4a-X	の
4f	と
=45	=45
2e-	き
4f	の
8r	.
8d-X	き
=46	=46
4.e-	ぼ
8d-X	お
2d-'	が
=47	=47
4e-	み
4d-X	え
4d-'	た
4e-	き
=48	=48
2d-X	が
2a-X	し
=49	=49
[1f	た
=50	=50
8.f]	.
32r	.
[32c	息
16c]	.
16r	.
[8d	ど
8dL]	.
8dJ	し
8.e-	て
32r	.
32f	ぶ
=51	=51
4.f	ら
16r	.
16f'	く
4.b-	ろ
32r	.
64r	.
64a-X	く
16r	.
=52	=52
2a	しゅ
4f	た
8r	.
8f	な
=53	=53
4dd	つ
8ee-L	か
[8ddJ	し
8ddL]	.
8cc	き
8b-	お
[8b-J	く
=54	=54
2.b-]	.
8r	.
8f	た
=55	=55
4f	だ
8r	.
8b-	た
4.b-	の
8f	し
=56	=56
4.f	か
8cc'	あ
2cc	た
=57	=57
4cc	あ
8ddL	の
[8ccJ	こ
8cc]	.
4b-	ろ
[8b-	お
=58	=58
2.b-]	.
8.c'	息
32r	.
32f	ぶ
=59	=59
4.f	ら
16r	.
16f'	く
4.b-	ろ
32r	.
64r	.
64a-X	く
16r	.
=60	=60
2a	しゅ
4f	た
8fL	で
8fJ	も
=61	=61
4dd	う
8ee-L	ご
[8ddJ	け
8ddL]	.
8cc	な
8b-	い
[8b-J	よ
=62	=62
2b-]	.
4c	息
4a-X	や
=63	=63
4b-	み
8b-L	お
[8b-J	か
8b-]	.
4.b-	け
=64	=64
4a-X	る
8a-L	ほ
8a-J	し
8a-L	に
8a-	ね
8a-	が
8a-J	い
=65	=65
[1b-	お
=66	=66
4b-]	.
4r	.
4c	息
4a-X	も
=67	=67
4b-	い
8b-L	ち
[8b-J	ど
8b-]	.
4.b-	だ
=68	=68
4a-X'	け
8a-L	は
[8a-J	し
8a-]	.
4a-	る
8a-	か
=69	=69
1b-	ら
=70	=70
1r	.
=71	=71
1r	.
=72	=72
1r	.
=73	=73
1r	.
=74	=74
1r	.
=75	=75
1r	.
=76	=76
1r	.
=77	=77
1r	.
=78	=78
1r	.
=79	=79
4c	息
4f	こ
4f	わ
4e-	く
=80	=80
4f	て
4e-	ふ
4d-X	る
4c	え
=81	=81
4c	る
8cL	こ
8d-XJ	え
4d-	で
8r	.
8A-X	つ
=82	=82
4.e-	ぶ
8f	や
2f	く
=83	=83
4c	息
4f	わ
4f	た
4e-	し
=84	=84
4f	の
4e-	な
4f	ま
4a-X	え
=85	=85
2.a-X	うぉ
4c	息
=86	=86
4.b-	よ
8a-X	ん
2a-	で
=87	=87
4c	息
4a-X	よ
4a-	あ
4b-	け
=88	=88
4b-	お
4a-X	い
4a-	だ
4b-	く
=89	=89
4.e-	そ
[8f	ら
8f]	.
8r	.
4B-	きょ
=90	=90
4.f	お
[8e-	か
4e-]	.
8d-XL	い
8cJ	せ
=91	=91
4.d-X	ん
[8f	ま
8f]	.
4.d-	で
=92	=92
4d-X	の
8fL	きょ
[8fJ	り
8f]	.
4a-X	あ
8g	と
=93	=93
4g	も
8f#XL	い
[8fnJ	い
16f]	.
16r	.
4en	ぽ
8e	と
=94	=94
4.en	ど
8f	か
4f	な
4f'	い
=95	=95
2B-	こ
2f	ら
=96	=96
4f	え
8e-L	た
8e-J	な
4d-X	み
4c	だ
=97	=97
4c'	が
4d-X	あ
4e-	ふ
4f	れ
=98	=98
4.f#X	そ
8fn	な
4f	の
8r	.
8B-	い
=99	=99
8B-L	ま
8f	し
8f	た
8fJ	お
8fL	む
8f	か
8f	な
8e-J	い
=100	=100
4e-	で
8d-XL	と
8d-J	ま
8a-X'L	あ
8f#X	て
8f#	し
8fnJ	ま
=101	=101
[1f	う
=102	=102
4f]	.
4r	.
4r	.
8r	.
8B-	み
=103	=103
4.B-	ら
8f	い
4f	お
4f	い
=104	=104
4e-	き
4f	て
4a-X	い
4f	た
=105	=105
4.e-	い
8f	ん
4f	だ
8r	.
8d-X	わ
=106	=106
4e-	か
8r	.
8d-X	た
2d-	の
=107	=107
8d-XL	お
8e-	も
8f	い
8fJ	だ
8fL	し
8e-	て
8f	つ
8e-J	よ
=108	=108
4f	く
4a-X	つ
4f	よ
4a-	く
=109	=109
4.b-	し
8a-X	ん
4.a-	じ
8f	る
=110	=110
2f	の
8r	.
8d	そ
8e-L	お
16.fL	よ
32fJJk	ぶ
=111	=111
4.f	ら
16r	.
16f'	く
4.b-	ろ
32r	.
64r	.
64a	く
16r	.
=112	=112
2a	しゅ
4f	た
8r	.
8f	や
=113	=113
4dd	さ
8ee-L	し
[8ddJ	い
8ddL]	.
8cc	に
8b-	お
[8b-J	い
=114	=114
2.b-]	.
8r	.
8f	い
=115	=115
4.f	た
8b-	い
4b-	よ
8r	.
8f	つ
=116	=116
4.f	ら
8cc	い
4cc	よ
8r	.
8f	の
=117	=117
4cc	み
8ddL	こ
[8ccJ	む
8ccL]	.
8b-	こ
8b-	と
[8b-J	ば
=118	=118
2.b-]	.
8.c	息
32r	.
32f	ぶ
=119	=119
4.f	ら
16r	.
16f'	く
4.b-	ろ
32r	.
64r	.
64a-X	く
16r	.
=120	=120
2a	しゅ
4f	た
8r	.
8f	う
=121	=121
8.ddL	ご
16ddJk	い
8ee-L	て
8ddJ	こ
8ccL	の
8b-J	あ
8r	.
[8b-	し
=122	=122
2b-]	.
4r	.
4c	息
=123	=123
2f	せ
2b-	か
=124	=124
2a	い
2f	お
=125	=125
1b-	こ
=126	=126
1cc	え
=127	=127
[1dd	て
=128	=128
8dd]	.
8r	.
4r	.
2r	.
=129	=129
1r	.
=130	=130
1r	.
=131	=131
1r	.
=132	=132
1r	.
=133	=133
1r	.
=134	=134
1r	.
=135	=135
1r	.
=136	=136
1r	.
=137	=137
1r	.
=138	=138
1r	.
=139	=139
1r	.
=140	=140
1r	.
=141	=141
1r	.
=142	=142
2r	.
4c	息
4r	.
*clefF4	*
=143	=143
2d	さ
2c	い
=144	=144
2B-	しょ
2A	か
=145	=145
2B-	ら
*clefG2	*
4c	息
4c	わ
=146	=146
2d	か
4c	て
4B-	い
*clefF4	*
=147	=147
2B-	た
4c	息
4B-	こ
=148	=148
4B-	こ
2e-	に
*clefG2	*
4d	い
=149	=149
2d	る
4c	こ
4B-	と
=150	=150
2B-	お
4c	息
4B-	わ
=151	=151
4c	た
4c	し
4B-	の
4c	な
=152	=152
4d	か
4c	あ
4B-	の
4r	.
=153	=153
4d	す
4e-	べ
4e-	て
4f	の
=154	=154
2a	ゆ
2g	き
=155	=155
2f	が
4c	息
4c	ひ
=156	=156
4d	お
4c	と
4d	も
4e-	し
=157	=157
2cc	て
4r	.
4f	も
=158	=158
*^	*
4cc	2r	に
8ddL	.	げ
[8ccJ	.	な
16ccKL]	8r	.
8.b-'J	.	い
.	4b-	よ
12r	.	.
12c	.	息
.	16r	.
12r	.	.
.	32r	.
.	32f	ぶ
*v	*v	*
=159	=159
4.f	ら
16r	.
16f'	く
4.b-	ろ
32r	.
64r	.
64a-X	く
16r	.
=160	=160
2a	しゅ
4f	た
8r	.
8f	ひ
=161	=161
4dd	と
8ee-L	り
[8ddJ	じゃ
8ddL]	.
8cc	な
8b-	い
[8b-J	よ
=162	=162
2.b-]	.
8r	.
8f	こ
=163	=163
4.f	え
8b-	お
4.b-	あ
8f	げ
=164	=164
4.f	て
8cc	な
4cc	い
4f'	た
=165	=165
4cc	て
8ddL	か
[8ccJ	ま
8cc]	.
4b-	わ
[8b-	な
=166	=166
4.b-]	.
8b-'	い
4r	.
8r	.
16r	.
32r	.
32f	ぶ
=167	=167
4.f	ら
16r	.
16f'	く
4.b-	ろ
32r	.
64r	.
64a-X	く
16r	.
=168	=168
2a	しゅ
4f	た
8r	.
8f	み
=169	=169
4dd	て
8ee-L	い
[8ddJ	て
16dd]	.
16r	.
8cc	く
8b-L	れ
[8b-J	る
=170	=170
2b-]	.
4r	.
4a-X	い
=171	=171
2b-	ま
8r	.
4.b-	か
=172	=172
4a-X	ら
8r	.
8a-	は
8a-	じ
4a-	ま
8a-	る
=173	=173
[1b-	の
=174	=174
4b-]	.
4r	.
4r	.
4a-X	わ
=175	=175
[2b-	た
8b-]	.
4.dd-X	し
=176	=176
4dd-X	の
8r	.
8a-X	も
4a-	の
8a-L	が
8a-J	た
=177	=177
1b-	り
=178	=178
1r	.
=179	=179
1r	.
=180	=180
1r	.
=181	=181
1r	.
=182	=182
1r	.
=183	=183
1r	.
=184	=184
1r	.
=185	=185
1r	.
=186	=186
1r	.
=187	=187
1r	.
=188	=188
2r	.
8r	.
4c	息
8a-X	わ
=189	=189
8b-L	す
8b-J	れ
4b-	そ
8b-L	に
8b-J	な
8r	.
8b-	た
=190	=190
4a-X	ら
8r	.
8a-	こ
8a-L	の
8a-	う
8a-	た
[8a-J	お
=191	=191
4a-]	.
6r	.
[12c	息
8cL]	.
8dJ	う
12e-	た
6d	う
=192	=192
2.B-	の
4r	.
==	==
*-	*-
